resources/svg/brands/linkedin.svg

<svg fill="currentColor" xmlns="http://www.w3.org/2000/svg" viewBox="0 0 448 512"><!--! Font Awesome Free 7.0.0 by @fontawesome - https://fontawesome.com License - https://fontawesome.com/license/free (Icons: CC BY 4.0, Fonts: SIL OFL 1.1, Code: MIT License) Copyright 2025 Fonticons, Inc. --><path fill="currentColor" d="M416 32L31.9 32C14.3 32 0 46.5 0 64.3L0 447.7C0 465.5 14.3 480 31.9 480L416 480c17.6 0 32-14.5 32-32.3l0-383.4C448 46.5 433.6 32 416 32zM135.4 416l-66.4 0 0-213.8 66.5 0 0 213.8-.1 0zM102.2 96a38.5 38.5 0 1 1 0 77 38.5 38.5 0 1 1 0-77zM384.3 416l-66.4 0 0-104c0-24.8-.5-56.7-34.5-56.7-34.6 0-39.9 27-39.9 54.9l0 105.8-66.4 0 0-213.8 63.7 0 0 29.2 .9 0c8.9-16.8 30.6-34.5 62.9-34.5 67.2 0 79.7 44.3 79.7 101.9l0 117.2z"/></svg>

<svg fill="currentColor" xmlns="http://www.w3.org/2000/svg" viewBox="0 0 448 512"><!--! Font Awesome Free 6.7.2 by @fontawesome - https://fontawesome.com License - https://fontawesome.com/license/free (Icons: CC BY 4.0, Fonts: SIL OFL 1.1, Code: MIT License) Copyright 2024 Fonticons, Inc. --><path d="M416 32H31.9C14.3 32 0 46.5 0 64.3v383.4C0 465.5 14.3 480 31.9 480H416c17.6 0 32-14.5 32-32.3V64.3c0-17.8-14.4-32.3-32-32.3zM135.4 416H69V202.2h66.5V416zm-33.2-243c-21.3 0-38.5-17.3-38.5-38.5S80.9 96 102.2 96c21.2 0 38.5 17.3 38.5 38.5 0 21.3-17.2 38.5-38.5 38.5zm282.1 243h-66.4V312c0-24.8-.5-56.7-34.5-56.7-34.6 0-39.9 27-39.9 54.9V416h-66.4V202.2h63.7v29.2h.9c8.9-16.8 30.6-34.5 62.9-34.5 67.2 0 79.7 44.3 79.7 101.9V416z"/></svg>
